X: 15135
T: Giggety Jig
R: jig
M: 6/8
K: Gmajor
|:DEG GAB|d3 B2d|e3 ede|g3 g2f1|
edB edB|A3 G2E|DEG DEG|A3 A2B:|
|:DEG DEG|A3 G2A|BdA Bde|e3 d2e|
gfe gfe|d3 B2G|ABG ABG|A3 A2B:|
"on last pass" DEG DEG|A3 G||

